X:2
T:Mrs Hamilton of Pencaitland
S:William Shepherd: A Collection of Strathspey Reels &amp;c
B:NLS Glen.345(1)
N:copy inscribed to his brother the Rev John Shepherd, 13 June 1793
M:2/4
L:1/16
K:D
.F2.F2`.G2````.G2| ef`````ge (dc).B.A|\
.F2.F2`.G2````.G2| ef/g/  ec Td4:    |
Tfe`fg (fg/)a/ fd|(ef/g/) ec  dA``FD |\
Tfe`fg (fg/a/) fd|(ef/g/) ec Td4    :|
